svgs/light/shower-down.svg

<svg xmlns="http://www.w3.org/2000/svg" viewBox="0 0 384 512"><!--! Font Awesome Pro 6.3.0 by @fontawesome - https://fontawesome.com License - https://fontawesome.com/license (Commercial License) Copyright 2023 Fonticons, Inc. --><path d="M276.8 399.9C274.2 390.5 265.9 384.1 256.2 384c-10.72-.9062-18.09 6.172-20.88 15.59c-3.344 11.61-8.562 19.42-13.56 26.83C215.3 435.1 208 446.7 208 462.6C208 489.8 229.5 512 256 512S304 489.8 304 462.6c0-15.89-7.312-26.66-13.75-36.16C285.3 419 280.1 411.4 276.8 399.9zM256 480c-8.812 0-16-7.812-16-17.42c0-5.797 2.531-9.766 8.25-18.22C250.7 440.8 253.3 436.8 256 432.2c2.656 4.609 5.344 8.562 7.781 12.17C269.5 452.8 272 456.8 272 462.6C272 472.2 264.8 480 256 480zM148.8 399.9C146.2 390.5 137.9 384.1 128.2 384c-9.594 0-18.09 6.234-20.88 15.59c-3.344 11.61-8.562 19.42-13.56 26.83C87.31 435.1 80 446.7 80 462.6C80 489.8 101.5 512 127.1 512S176 489.8 176 462.6c0-15.89-7.312-26.66-13.75-36.16C157.3 419 152.1 411.4 148.8 399.9zM128 480c-8.812 0-16-7.812-16-17.42c0-5.797 2.531-9.766 8.25-18.22C122.7 440.8 125.3 436.8 128 432.2c2.656 4.609 5.344 8.562 7.781 12.17C141.5 452.8 144 456.8 144 462.6C144 472.2 136.8 480 128 480zM112 334.6c0-15.89-7.312-26.66-13.75-36.16c-5-7.391-10.19-15.02-13.5-26.62C82.09 262.4 73.88 256.1 64.19 256C54.59 256 46.09 262.2 43.28 271.7c-3.344 11.61-8.531 19.28-13.53 26.69C23.31 307.1 16 318.7 16 334.6c0 27.25 21.53 49.48 47.1 49.48S112 361.8 112 334.6zM64 352c-8.812 0-16-7.812-16-17.42c0-5.797 2.531-9.766 8.25-18.22C58.69 312.8 61.34 308.8 64 304.2c2.656 4.609 5.344 8.578 7.781 12.17C77.47 324.8 80 328.8 80 334.6C80 344.2 72.81 352 64 352zM240 334.6c0-15.89-7.312-26.66-13.75-36.16c-5-7.391-10.19-15.02-13.5-26.62C210.1 262.4 201.9 256.1 192.2 256C182.7 255.2 174.1 262.2 171.3 271.7c-3.344 11.61-8.531 19.28-13.53 26.69C151.3 307.1 144 318.7 144 334.6c0 27.25 21.53 49.48 47.1 49.48S240 361.8 240 334.6zM192 352c-8.812 0-16-7.812-16-17.42c0-5.797 2.531-9.766 8.25-18.22C186.7 312.8 189.3 308.8 192 304.2c2.656 4.609 5.344 8.578 7.781 12.17C205.5 324.8 208 328.8 208 334.6C208 344.2 200.8 352 192 352zM340.8 271.9C338.2 262.5 329.9 256.1 320.2 256c-9.594 0-18.09 6.234-20.88 15.59c-3.344 11.61-8.562 19.42-13.56 26.83C279.3 307.1 272 318.7 272 334.6c0 27.25 21.53 49.48 47.1 49.48S368 361.8 368 334.6c0-15.89-7.312-26.66-13.75-36.16C349.3 291 344.1 283.4 340.8 271.9zM320 352c-8.812 0-16-7.812-16-17.42c0-5.797 2.531-9.766 8.25-18.22C314.7 312.8 317.3 308.8 320 304.2c2.656 4.609 5.344 8.562 7.781 12.17C333.5 324.8 336 328.8 336 334.6C336 344.2 328.8 352 320 352zM368 192H352c0-82.74-63.38-150.2-144-158.4V15.1C208 7.163 200.8 0 192 0S176 7.163 176 15.1v17.62C95.38 41.78 32 109.3 32 192H16C7.163 192 0 199.2 0 207.1S7.163 224 15.1 224H368C376.8 224 384 216.8 384 208S376.8 192 368 192zM64 192c0-70.58 57.41-128 128-128s128 57.42 128 128H64z"/></svg>

<svg xmlns="http://www.w3.org/2000/svg" viewBox="0 0 384 512"><!-- Font Awesome Pro 6.0.0-alpha2 by @fontawesome - https://fontawesome.com License - https://fontawesome.com/license (Commercial License) --><path d="M276.75 399.891C274.156 390.484 265.906 384.094 256.188 384C245.469 383.094 238.094 390.172 235.312 399.594L235.281 399.734C231.937 411.344 226.75 419.016 221.75 426.422C215.312 435.953 208 446.734 208 462.578C208 489.828 229.531 512 256 512S304 489.828 304 462.578C304 446.688 296.688 435.922 290.25 426.422C285.25 419.031 280.062 411.391 276.75 399.891ZM256 480C247.188 480 240 472.188 240 462.578C240 456.781 242.531 452.812 248.25 444.359C250.688 440.766 253.344 436.812 256 432.219C258.656 436.828 261.344 440.781 263.781 444.391C269.469 452.797 272 456.75 272 462.578C272 472.188 264.812 480 256 480ZM148.75 399.891C146.156 390.484 137.906 384.094 128.188 384H128C118.406 384 110.094 390.234 107.312 399.594L107.281 399.734C103.937 411.344 98.75 419.016 93.75 426.422C87.312 435.953 80 446.734 80 462.578C80 489.828 101.531 512 128 512S176 489.828 176 462.578C176 446.688 168.688 435.922 162.25 426.422C157.25 419.031 152.062 411.391 148.75 399.891ZM128 480C119.188 480 112 472.188 112 462.578C112 456.781 114.531 452.812 120.25 444.359C122.688 440.766 125.344 436.812 128 432.219C130.656 436.828 133.344 440.781 135.781 444.391C141.469 452.797 144 456.75 144 462.578C144 472.188 136.812 480 128 480ZM112 334.578C112 318.688 104.688 307.922 98.25 298.422C93.25 291.031 88.062 283.406 84.75 271.797C82.094 262.438 73.875 256.094 64.188 256H64C54.406 256 46.094 262.234 43.281 271.734C39.938 283.344 34.75 291.016 29.75 298.422C23.312 307.953 16 318.734 16 334.578C16 361.828 37.531 384 64 384S112 361.828 112 334.578ZM64 352C55.188 352 48 344.188 48 334.578C48 328.781 50.531 324.812 56.25 316.359C58.688 312.766 61.344 308.797 64 304.219C66.656 308.828 69.344 312.797 71.781 316.391C77.469 324.797 80 328.75 80 334.578C80 344.188 72.812 352 64 352ZM240 334.578C240 318.688 232.688 307.922 226.25 298.422C221.25 291.031 216.062 283.406 212.75 271.797C210.094 262.438 201.875 256.094 192.188 256C182.719 255.156 174.094 262.156 171.281 271.734C167.938 283.344 162.75 291.016 157.75 298.422C151.312 307.953 144 318.734 144 334.578C144 361.828 165.531 384 192 384S240 361.828 240 334.578ZM192 352C183.188 352 176 344.188 176 334.578C176 328.781 178.531 324.812 184.25 316.359C186.688 312.766 189.344 308.797 192 304.219C194.656 308.828 197.344 312.797 199.781 316.391C205.469 324.797 208 328.75 208 334.578C208 344.188 200.812 352 192 352ZM340.75 271.891C338.156 262.484 329.906 256.094 320.188 256H320C310.406 256 302.094 262.234 299.312 271.594L299.281 271.734C295.937 283.344 290.75 291.016 285.75 298.422C279.312 307.953 272 318.734 272 334.578C272 361.828 293.531 384 320 384S368 361.828 368 334.578C368 318.688 360.688 307.922 354.25 298.422C349.25 291.031 344.062 283.391 340.75 271.891ZM320 352C311.188 352 304 344.188 304 334.578C304 328.781 306.531 324.812 312.25 316.359C314.688 312.766 317.344 308.812 320 304.219C322.656 308.828 325.344 312.781 327.781 316.391C333.469 324.797 336 328.75 336 334.578C336 344.188 328.812 352 320 352ZM368 192H352C352 109.26 288.625 41.779 208 33.617V16C208 7.163 200.837 0 192 0H192C183.163 0 176 7.163 176 16V33.617C95.375 41.779 32 109.26 32 192H16C7.163 192 0 199.163 0 208V208C0 216.837 7.163 224 16 224H368C376.837 224 384 216.837 384 208V208C384 199.163 376.837 192 368 192ZM64 192C64 121.422 121.406 64 192 64S320 121.422 320 192H64Z"/></svg>
